X:164
T:Gossip's Frolic,The. (p)1657.PLFD.122
M:6/4
L:1/4
Q:3/4=120
S:Playford, Dancing Master,3rd Ed.,1657
O:England
H:1657.
Z:Chris Partington
K:D
A|defefd|c2Ad2F|GABABG|F3E2e|
efggfe|f3e2B|efggfef3e2e|
fgaA2A|BcdF2F|GABc2d|e3d2:|
